icons/360-view-16-f.svg

<svg xmlns="http://www.w3.org/2000/svg" viewBox="0 0 16 16"><path d="M15 11.5c0 1.13-2.11 2.09-5 2.4V16l-3-2.5 3-2.5v1.88c2.54-.29 3.9-1.05 4-1.36-.12-.42-2.16-1.62-6-1.62s-5.88 1.2-6 1.58c.1.34 1.46 1.11 4 1.4v1c-2.89-.31-5-1.27-5-2.4C1 10.12 4.13 9 8 9s7 1.12 7 2.5zm-1.5-7.25a.75.75 0 1 0-.75-.75.76.76 0 0 0 .75.75zM16 0v9a27.18 27.18 0 0 0-8-1.1A27.23 27.23 0 0 0 0 9V0a27.33 27.33 0 0 0 8 1.1A27.23 27.23 0 0 0 16 0zm-1 1.23A31.48 31.48 0 0 1 8 2a31.61 31.61 0 0 1-7-.77v6.44l.31-.07L5 4l1 1 2-2 2 3 1.5-1.5 3.38 3.14H15z"/></svg>

<svg id="icons" xmlns="http://www.w3.org/2000/svg" viewBox="0 0 16 16"><title>360-view-16</title><path d="M15,11.5c0,1.13-2.11,2.09-5,2.4V16L7,13.5,10,11v1.88c2.54-.29,3.9-1.05,4-1.36-.12-.42-2.16-1.62-6-1.62s-5.88,1.2-6,1.58c.1.34,1.46,1.11,4,1.4v1c-2.89-.31-5-1.27-5-2.4C1,10.12,4.13,9,8,9S15,10.12,15,11.5ZM13.5,4.25a.75.75,0,1,0-.75-.75A.76.76,0,0,0,13.5,4.25ZM16,0V9A27.18,27.18,0,0,0,8,7.9,27.23,27.23,0,0,0,0,9V0A27.33,27.33,0,0,0,8,1.1,27.23,27.23,0,0,0,16,0ZM15,1.23A31.48,31.48,0,0,1,8,2a31.61,31.61,0,0,1-7-.77V7.67l.31-.07h0L5,4,6,5,8,3l2,3L11.5,4.5l3.38,3.14.12,0Z"/></svg>
